assets/icons/logo-white.svg

<svg width="260" height="67" viewBox="0 0 260 67" fill="none" xmlns="http://www.w3.org/2000/svg">
<g clip-path="url(#clip0_1238_1460)">
<path d="M28.3799 32.5958H19.856V24.0859H28.3799V32.5958ZM21.7824 30.6726H26.4536V26.0091H21.7824V30.6726Z" fill="#C9D8E0"/>
<path d="M141.606 32.5958H133.082V24.0859H141.606V32.5958ZM135.008 30.6726H139.679V26.0091H135.008V30.6726Z" fill="#C9D8E0"/>
<path d="M206.582 25.0469H199.984V31.6336H206.582V25.0469Z" stroke="#C9D8E0" stroke-width="4.26" stroke-miterlimit="10"/>
<path d="M173.598 25H167V31.5867H173.598V25Z" stroke="#C9D8E0" stroke-width="4.26" stroke-miterlimit="10"/>
<path d="M140.598 25H134V31.5867H140.598V25Z" stroke="#C9D8E0" stroke-width="4.26" stroke-miterlimit="10"/>
<path d="M93.5976 25H87V31.5867H93.5976V25Z" stroke="#C9D8E0" stroke-width="4.26" stroke-miterlimit="10"/>
<path d="M59.5976 25H53V31.5867H59.5976V25Z" stroke="#C9D8E0" stroke-width="4.26" stroke-miterlimit="10"/>
<path d="M27.5976 25H21V31.5867H27.5976V25Z" stroke="#C9D8E0" stroke-width="4.26" stroke-miterlimit="10"/>
<path d="M239.172 25.0469H232.574V31.6336H239.172V25.0469Z" stroke="#C9D8E0" stroke-width="4.26" stroke-miterlimit="10"/>
<path d="M61.015 32.5958H52.4911V24.0859H61.015V32.5958ZM54.4174 30.6726H59.0886V26.0091H54.4174V30.6726Z" fill="#C9D8E0"/>
<path d="M93.6547 32.5958H85.1307V24.0859H93.6547V32.5958ZM87.0571 30.6726H91.7283V26.0091H87.0571V30.6726Z" fill="#C9D8E0"/>
<path d="M257.965 30.3736H2.03489C0.908917 30.3736 0 29.4662 0 28.3421C0 27.218 0.908917 26.3105 2.03489 26.3105H257.965C259.091 26.3105 260 27.218 260 28.3421C260 29.4662 259.091 30.3736 257.965 30.3736Z" fill="#C9D8E0"/>
<path d="M24.1157 12.0899C19.2591 12.0899 14.8954 14.2298 11.9064 17.6066V2.03153C11.9064 0.907419 10.9975 0 9.8715 0C8.74553 0 7.83661 0.907419 7.83661 2.03153V28.3422C7.83661 37.3035 15.1396 44.5944 24.1157 44.5944C33.0918 44.5944 40.3948 37.3035 40.3948 28.3422C40.3948 19.3808 33.0918 12.0899 24.1157 12.0899ZM24.1157 40.5268C17.3825 40.5268 11.9064 35.0598 11.9064 28.3376C11.9064 21.6155 17.3825 16.1484 24.1157 16.1484C30.8489 16.1484 36.3251 21.6155 36.3251 28.3376C36.3251 35.0598 30.8489 40.5268 24.1157 40.5268Z" fill="white"/>
<path d="M56.7553 12.0898C47.7792 12.0898 40.4762 19.3808 40.4762 28.3421C40.4762 37.3034 47.7792 44.5944 56.7553 44.5944C61.6119 44.5944 65.9756 42.4545 68.9646 39.0776V42.5629C68.9646 43.687 69.8736 44.5944 70.9995 44.5944C72.1255 44.5944 73.0344 43.687 73.0344 42.5629V28.3421C73.0344 19.3808 65.7314 12.0898 56.7553 12.0898ZM56.7553 40.5268C50.0221 40.5268 44.546 35.0597 44.546 28.3376C44.546 21.6155 50.0221 16.1484 56.7553 16.1484C63.4885 16.1484 68.9646 21.6155 68.9646 28.3376C68.9646 35.0597 63.4885 40.5268 56.7553 40.5268Z" fill="white"/>
<path d="M203.285 44.5905C194.309 44.5905 187.006 37.2995 187.006 28.3382C187.006 19.3769 194.309 12.0859 203.285 12.0859C212.262 12.0859 219.565 19.3769 219.565 28.3382C219.565 29.4623 218.656 30.3697 217.53 30.3697H191.248C192.22 36.1258 197.249 40.5274 203.285 40.5274C207.631 40.5274 211.683 38.1934 213.862 34.4328C214.428 33.4622 215.671 33.1281 216.643 33.6924C217.616 34.2567 217.95 35.4982 217.385 36.4689C214.482 41.48 209.078 44.5905 203.285 44.5905ZM191.248 26.3067H215.323C214.351 20.5507 209.322 16.149 203.285 16.149C197.249 16.149 192.22 20.5461 191.248 26.3067Z" fill="white"/>
<path d="M137.346 12.0898C128.37 12.0898 121.067 19.3808 121.067 28.3421C121.067 37.3034 128.37 44.5944 137.346 44.5944C142.203 44.5944 146.566 42.4545 149.555 39.0776V42.5629C149.555 43.687 150.464 44.5944 151.59 44.5944C152.716 44.5944 153.625 43.687 153.625 42.5629V28.3421C153.625 19.3808 146.322 12.0898 137.346 12.0898ZM137.346 40.5268C130.613 40.5268 125.137 35.0597 125.137 28.3376C125.137 21.6155 130.613 16.1484 137.346 16.1484C144.079 16.1484 149.555 21.6155 149.555 28.3376C149.555 35.0597 144.079 40.5268 137.346 40.5268Z" fill="white"/>
<path d="M235.875 12.0898C226.899 12.0898 219.596 19.3808 219.596 28.3421C219.596 37.3034 226.899 44.5944 235.875 44.5944C240.732 44.5944 245.096 42.4545 248.085 39.0776V42.5629C248.085 43.687 248.994 44.5944 250.119 44.5944C251.245 44.5944 252.154 43.687 252.154 42.5629V28.3421C252.154 19.3808 244.851 12.0898 235.875 12.0898ZM235.875 40.5268C229.147 40.5268 223.666 35.0597 223.666 28.3376C223.666 21.6155 229.142 16.1484 235.875 16.1484C242.608 16.1484 248.085 21.6155 248.085 28.3376C248.085 35.0597 242.608 40.5268 235.875 40.5268Z" fill="white"/>
<path d="M170.696 12.0898C161.719 12.0898 154.416 19.3808 154.416 28.3421V42.5629C154.416 43.687 155.325 44.5944 156.451 44.5944C157.577 44.5944 158.486 43.687 158.486 42.5629V28.3421C158.486 21.6245 163.962 16.1529 170.696 16.1529C177.429 16.1529 182.905 21.62 182.905 28.3421C182.905 29.4662 183.814 30.3737 184.94 30.3737C186.066 30.3737 186.975 29.4662 186.975 28.3421C186.975 19.3808 179.672 12.0898 170.696 12.0898Z" fill="white"/>
<path d="M103.635 12.0898C102.509 12.0898 101.6 12.9973 101.6 14.1214V28.3421C101.6 35.0597 96.1236 40.5313 89.3904 40.5313C82.6572 40.5313 77.181 35.0642 77.181 28.3421V14.1214C77.181 12.9973 76.2721 12.0898 75.1462 12.0898C74.0202 12.0898 73.1113 12.9973 73.1113 14.1214V28.3421C73.1113 37.3034 80.4143 44.5944 89.3904 44.5944C94.247 44.5944 98.6107 42.4545 101.6 39.0776V50.7522C101.6 57.4698 96.1236 62.9414 89.3904 62.9414C82.6572 62.9414 77.181 57.4743 77.181 50.7522C77.181 49.6281 76.2721 48.7207 75.1462 48.7207C74.0202 48.7207 73.1113 49.6281 73.1113 50.7522C73.1113 59.7135 80.4143 67.0045 89.3904 67.0045C98.3665 67.0045 105.669 59.7135 105.669 50.7522V14.1214C105.669 12.9973 104.761 12.0898 103.635 12.0898Z" fill="white"/>
<path d="M120.945 65.338C117.372 65.338 114.193 62.2997 114.193 58.7332C114.193 54.8733 117.237 52.0156 121.13 52.0156C124.63 52.0156 127.927 54.7559 127.881 58.7784C127.836 62.1597 124.996 65.338 120.945 65.338ZM121.013 54.1871C118.634 54.1871 116.572 56.1961 116.572 58.6655C116.572 61.135 118.562 63.1665 120.967 63.1665C123.373 63.1665 125.498 61.2027 125.498 58.6429C125.498 56.0832 123.509 54.1871 121.013 54.1871Z" fill="white"/>
<path d="M130.097 65.0213V52.3626H132.318V53.5048H132.363C132.937 52.6606 133.918 52.1098 135.591 52.0195V54.4664C133.534 54.5341 132.48 55.7937 132.48 57.9155V65.0213H130.102H130.097Z" fill="white"/>
<path d="M138.119 65.0221V54.5349H136.401V52.3634H138.119V48.1152H140.498V52.3634H142.582V54.5349H140.498V65.0221H138.119Z" fill="white"/>
<path d="M153.006 65.0221V58.1465C153.006 55.4288 151.952 54.1918 149.849 54.1918C147.746 54.1918 146.507 55.6996 146.507 58.1691V65.0221H144.129V48.1152H146.507V53.7132H146.553C147.308 52.5936 148.52 52.0203 150.102 52.0203C153.123 52.0203 155.389 53.939 155.389 57.4106V65.0176H153.01L153.006 65.0221Z" fill="white"/>
<path d="M164.274 65.338C160.702 65.338 157.523 62.2997 157.523 58.7332C157.523 54.8733 160.566 52.0156 164.46 52.0156C167.96 52.0156 171.256 54.7559 171.211 58.7784C171.166 62.1597 168.326 65.338 164.274 65.338ZM164.342 54.1871C161.964 54.1871 159.902 56.1961 159.902 58.6655C159.902 61.135 161.891 63.1665 164.297 63.1665C166.703 63.1665 168.828 61.2027 168.828 58.6429C168.828 56.0832 166.838 54.1871 164.342 54.1871Z" fill="white"/>
<path d="M183.841 65.0221V63.2163H183.796C182.81 64.5887 181.164 65.3426 179.31 65.3426C175.624 65.3426 172.717 62.5572 172.717 58.8327C172.717 55.1082 175.462 52.0248 179.238 52.0248C180.956 52.0248 182.579 52.6433 183.61 53.9209H183.655V48.1152H186.034V65.0221H183.836H183.841ZM179.423 54.1918C176.995 54.1918 175.095 56.2233 175.095 58.7153C175.095 61.2073 177.04 63.1712 179.423 63.1712C181.806 63.1712 183.841 61.2073 183.841 58.8056C183.841 56.2233 182.1 54.1918 179.423 54.1918Z" fill="white"/>
<path d="M195.064 65.338C191.492 65.338 188.313 62.2997 188.313 58.7332C188.313 54.8733 191.356 52.0156 195.25 52.0156C198.75 52.0156 202.046 54.7559 202.001 58.7784C201.956 62.1597 199.116 65.338 195.064 65.338ZM195.132 54.1871C192.754 54.1871 190.692 56.1961 190.692 58.6655C190.692 61.135 192.681 63.1665 195.087 63.1665C197.493 63.1665 199.618 61.2027 199.618 58.6429C199.618 56.0832 197.628 54.1871 195.132 54.1871Z" fill="white"/>
<path d="M213.084 65.0213V58.1186C213.084 55.4461 212.031 54.1865 209.928 54.1865C207.825 54.1865 206.586 55.7169 206.586 58.0961V65.0213H204.208V52.3626H206.428V53.7125H206.473C207.414 52.5026 208.716 52.0195 210.181 52.0195C213.225 52.0195 215.468 53.9382 215.468 57.437V65.0213H213.089H213.084Z" fill="white"/>
<path d="M218.579 65.0221V54.5349H216.86V52.3634H218.579V48.1152H220.957V52.3634H223.042V54.5349H220.957V65.0221H218.579Z" fill="white"/>
<path d="M224.584 50.9007V48.1152H226.962V50.9007H224.584ZM224.584 65.0221V52.3634H226.962V65.0221H224.584Z" fill="white"/>
<path d="M241.98 60.837C240.972 63.6947 238.548 65.338 235.731 65.338C232.09 65.338 229.228 62.4126 229.228 58.8009C229.228 54.9862 231.995 52.0156 235.703 52.0156C238.588 52.0156 241.22 53.8214 241.975 56.5617H239.344C238.634 55.0765 237.49 54.1871 235.771 54.1871C233.275 54.1871 231.607 56.0832 231.607 58.6655C231.607 61.2478 233.325 63.1665 235.726 63.1665C237.349 63.1665 238.656 62.2997 239.321 60.837H241.975H241.98Z" fill="white"/>
<path d="M249.26 55.7228C249.147 54.8109 248.618 54.1924 247.637 54.1924C246.723 54.1924 246.149 54.8109 246.149 55.5422C246.149 56.6167 247.248 56.9372 248.505 57.3254C250.291 57.8717 251.937 58.9461 251.937 61.3027C251.937 63.6593 250.151 65.3477 247.682 65.3477C245.394 65.3477 243.196 63.7947 243.196 60.8693H245.575C245.688 62.3998 246.466 63.1763 247.727 63.1763C248.826 63.1763 249.559 62.4675 249.559 61.4382C249.559 60.5714 248.894 59.998 247.406 59.5195C244.295 58.5353 243.766 57.19 243.766 55.7499C243.766 53.5107 245.665 52.0254 247.75 52.0254C249.835 52.0254 251.571 53.4881 251.639 55.7273H249.26V55.7228Z" fill="white"/>
</g>
<defs>
<clipPath id="clip0_1238_1460">
<rect width="260" height="67" fill="white"/>
</clipPath>
</defs>
</svg>

<?xml version="1.0" encoding="UTF-8"?>
<svg id="Layer_1" data-name="Layer 1" xmlns="http://www.w3.org/2000/svg" viewBox="0 0 260 67">
  <path d="M208.71,33.76h-10.86v-10.85h10.86v10.85ZM202.11,29.5h2.34v-2.33h-2.34v2.33Z" style="fill: #fff; stroke-width: 0px;"/>
  <path d="M175.73,33.72h-10.86v-10.85h10.86v10.85ZM169.13,29.46h2.34v-2.33h-2.34v2.33Z" style="fill: #fff; stroke-width: 0px;"/>
  <path d="M95.73,33.72h-10.86v-10.85h10.86v10.85ZM89.13,29.46h2.34v-2.33h-2.34v2.33Z" style="fill: #fff; stroke-width: 0px;"/>
  <path d="M61.73,33.72h-10.86v-10.85h10.86v10.85ZM55.13,29.46h2.34v-2.33h-2.34v2.33Z" style="fill: #fff; stroke-width: 0px;"/>
  <path d="M29.73,33.72h-10.86v-10.85h10.86v10.85ZM23.13,29.46h2.34v-2.33h-2.34v2.33Z" style="fill: #fff; stroke-width: 0px;"/>
  <path d="M241.3,33.76h-10.86v-10.85h10.86v10.85ZM234.7,29.5h2.34v-2.33h-2.34v2.33Z" style="fill: #fff; stroke-width: 0px;"/>
  <path d="M257.96,30.37H2.03c-1.13,0-2.03-.91-2.03-2.03s.91-2.03,2.03-2.03h255.93c1.13,0,2.04.91,2.04,2.03s-.91,2.03-2.04,2.03Z" style="fill: #fff; stroke-width: 0px;"/>
  <path d="M24.12,12.09c-4.86,0-9.22,2.14-12.21,5.52V2.03c0-1.12-.91-2.03-2.03-2.03s-2.03.91-2.03,2.03v26.31c0,8.96,7.3,16.25,16.28,16.25s16.28-7.29,16.28-16.25-7.3-16.25-16.28-16.25ZM24.12,40.53c-6.73,0-12.21-5.47-12.21-12.19s5.48-12.19,12.21-12.19,12.21,5.47,12.21,12.19-5.48,12.19-12.21,12.19Z" style="fill: #fff; stroke-width: 0px;"/>
  <path d="M56.76,12.09c-8.98,0-16.28,7.29-16.28,16.25s7.3,16.25,16.28,16.25c4.86,0,9.22-2.14,12.21-5.52v3.49c0,1.12.91,2.03,2.03,2.03s2.03-.91,2.03-2.03v-14.22c0-8.96-7.3-16.25-16.28-16.25ZM56.76,40.53c-6.73,0-12.21-5.47-12.21-12.19s5.48-12.19,12.21-12.19,12.21,5.47,12.21,12.19-5.48,12.19-12.21,12.19Z" style="fill: #fff; stroke-width: 0px;"/>
  <path d="M203.29,44.59c-8.98,0-16.28-7.29-16.28-16.25s7.3-16.25,16.28-16.25,16.28,7.29,16.28,16.25c0,1.12-.91,2.03-2.04,2.03h-26.28c.97,5.76,6,10.16,12.04,10.16,4.35,0,8.4-2.33,10.58-6.09.57-.97,1.81-1.3,2.78-.74.97.56,1.31,1.81.74,2.78-2.9,5.01-8.31,8.12-14.1,8.12ZM191.25,26.31h24.07c-.97-5.76-6-10.16-12.04-10.16s-11.07,4.4-12.04,10.16Z" style="fill: #fff; stroke-width: 0px;"/>
  <path d="M137.35,12.09c-8.98,0-16.28,7.29-16.28,16.25s7.3,16.25,16.28,16.25c4.86,0,9.22-2.14,12.21-5.52v3.49c0,1.12.91,2.03,2.04,2.03s2.04-.91,2.04-2.03v-14.22c0-8.96-7.3-16.25-16.28-16.25ZM137.35,40.53c-6.73,0-12.21-5.47-12.21-12.19s5.48-12.19,12.21-12.19,12.21,5.47,12.21,12.19-5.48,12.19-12.21,12.19Z" style="fill: #fff; stroke-width: 0px;"/>
  <path d="M235.88,12.09c-8.98,0-16.28,7.29-16.28,16.25s7.3,16.25,16.28,16.25c4.86,0,9.22-2.14,12.21-5.52v3.49c0,1.12.91,2.03,2.03,2.03s2.04-.91,2.04-2.03v-14.22c0-8.96-7.3-16.25-16.28-16.25ZM235.88,40.53c-6.73,0-12.21-5.47-12.21-12.19s5.48-12.19,12.21-12.19,12.21,5.47,12.21,12.19-5.48,12.19-12.21,12.19Z" style="fill: #fff; stroke-width: 0px;"/>
  <path d="M170.7,12.09c-8.98,0-16.28,7.29-16.28,16.25v14.22c0,1.12.91,2.03,2.04,2.03s2.03-.91,2.03-2.03v-14.22c0-6.72,5.48-12.19,12.21-12.19s12.21,5.47,12.21,12.19c0,1.12.91,2.03,2.04,2.03s2.04-.91,2.04-2.03c0-8.96-7.3-16.25-16.28-16.25Z" style="fill: #fff; stroke-width: 0px;"/>
  <path d="M103.64,12.09c-1.13,0-2.04.91-2.04,2.03v14.22c0,6.72-5.48,12.19-12.21,12.19s-12.21-5.47-12.21-12.19v-14.22c0-1.12-.91-2.03-2.03-2.03s-2.03.91-2.03,2.03v14.22c0,8.96,7.3,16.25,16.28,16.25,4.86,0,9.22-2.14,12.21-5.52v11.67c0,6.72-5.48,12.19-12.21,12.19s-12.21-5.47-12.21-12.19c0-1.12-.91-2.03-2.03-2.03s-2.03.91-2.03,2.03c0,8.96,7.3,16.25,16.28,16.25s16.28-7.29,16.28-16.25V14.12c0-1.12-.91-2.03-2.03-2.03Z" style="fill: #fff; stroke-width: 0px;"/>
  <path d="M120.94,65.34c-3.57,0-6.75-3.04-6.75-6.6,0-3.86,3.04-6.72,6.94-6.72,3.5,0,6.8,2.74,6.75,6.76-.04,3.38-2.88,6.56-6.94,6.56ZM121.01,54.19c-2.38,0-4.44,2.01-4.44,4.48s1.99,4.5,4.4,4.5,4.53-1.96,4.53-4.52-1.99-4.46-4.49-4.46Z" style="fill: #fff; stroke-width: 0px;"/>
  <path d="M130.1,65.02v-12.66h2.22v1.14h.05c.57-.84,1.55-1.4,3.23-1.49v2.45c-2.06.07-3.11,1.33-3.11,3.45v7.11h-2.38Z" style="fill: #fff; stroke-width: 0px;"/>
  <path d="M138.12,65.02v-10.49h-1.72v-2.17h1.72v-4.25h2.38v4.25h2.08v2.17h-2.08v10.49h-2.38Z" style="fill: #fff; stroke-width: 0px;"/>
  <path d="M153.01,65.02v-6.88c0-2.72-1.05-3.95-3.16-3.95s-3.34,1.51-3.34,3.98v6.85h-2.38v-16.91h2.38v5.6h.05c.76-1.12,1.97-1.69,3.55-1.69,3.02,0,5.29,1.92,5.29,5.39v7.61h-2.38Z" style="fill: #fff; stroke-width: 0px;"/>
  <path d="M164.27,65.34c-3.57,0-6.75-3.04-6.75-6.6,0-3.86,3.04-6.72,6.94-6.72,3.5,0,6.8,2.74,6.75,6.76-.04,3.38-2.88,6.56-6.94,6.56ZM164.34,54.19c-2.38,0-4.44,2.01-4.44,4.48s1.99,4.5,4.4,4.5,4.53-1.96,4.53-4.52-1.99-4.46-4.49-4.46Z" style="fill: #fff; stroke-width: 0px;"/>
  <path d="M183.84,65.02v-1.81h-.04c-.99,1.37-2.63,2.13-4.49,2.13-3.69,0-6.59-2.79-6.59-6.51s2.75-6.81,6.52-6.81c1.72,0,3.34.62,4.37,1.9h.05v-5.81h2.38v16.91h-2.2,0ZM179.42,54.19c-2.43,0-4.33,2.03-4.33,4.52s1.94,4.46,4.33,4.46,4.42-1.96,4.42-4.37c0-2.58-1.74-4.61-4.42-4.61Z" style="fill: #fff; stroke-width: 0px;"/>
  <path d="M195.06,65.34c-3.57,0-6.75-3.04-6.75-6.6,0-3.86,3.04-6.72,6.94-6.72,3.5,0,6.8,2.74,6.75,6.76-.05,3.38-2.89,6.56-6.94,6.56ZM195.13,54.19c-2.38,0-4.44,2.01-4.44,4.48s1.99,4.5,4.4,4.5,4.53-1.96,4.53-4.52-1.99-4.46-4.49-4.46Z" style="fill: #fff; stroke-width: 0px;"/>
  <path d="M213.09,65.02v-6.9c0-2.67-1.05-3.93-3.16-3.93s-3.34,1.53-3.34,3.91v6.93h-2.38v-12.66h2.22v1.35h.05c.94-1.21,2.24-1.69,3.71-1.69,3.04,0,5.29,1.92,5.29,5.42v7.58h-2.38Z" style="fill: #fff; stroke-width: 0px;"/>
  <path d="M218.58,65.02v-10.49h-1.72v-2.17h1.72v-4.25h2.38v4.25h2.09v2.17h-2.09v10.49h-2.38Z" style="fill: #fff; stroke-width: 0px;"/>
  <path d="M224.58,50.9v-2.79h2.38v2.79h-2.38ZM224.58,65.02v-12.66h2.38v12.66h-2.38Z" style="fill: #fff; stroke-width: 0px;"/>
  <path d="M241.98,60.84c-1.01,2.86-3.43,4.5-6.25,4.5-3.64,0-6.5-2.93-6.5-6.54,0-3.81,2.77-6.79,6.48-6.79,2.88,0,5.52,1.81,6.27,4.55h-2.63c-.71-1.49-1.85-2.37-3.57-2.37-2.5,0-4.16,1.9-4.16,4.48s1.72,4.5,4.12,4.5c1.62,0,2.93-.87,3.6-2.33h2.66Z" style="fill: #fff; stroke-width: 0px;"/>
  <path d="M249.26,55.72c-.11-.91-.64-1.53-1.62-1.53-.91,0-1.49.62-1.49,1.35,0,1.07,1.1,1.4,2.36,1.78,1.79.55,3.43,1.62,3.43,3.98s-1.79,4.05-4.25,4.05c-2.29,0-4.49-1.55-4.49-4.48h2.38c.11,1.53.89,2.31,2.15,2.31,1.1,0,1.83-.71,1.83-1.74,0-.87-.67-1.44-2.15-1.92-3.11-.98-3.64-2.33-3.64-3.77,0-2.24,1.9-3.72,3.98-3.72s3.82,1.46,3.89,3.7h-2.38Z" style="fill: #fff; stroke-width: 0px;"/>
  <path d="M142.77,33.72h-10.86v-10.85h10.86v10.85ZM136.18,29.46h2.34v-2.33h-2.34v2.33Z" style="fill: #fff; stroke-width: 0px;"/>
</svg>
